X:1
T:James Gibb editions
T:The foe behind, the deep before - Barnby
T:#
%%score [ ( 1 2 ) ( 3 4 ) ]
L:1/8
Q:1/4=160
M:4/4
K:D
V:1 treble nm="Midi_74"
V:2 treble 
V:3 bass nm="Midi_74"
V:4 bass 
V:1
"^John Mason Neale\n(1818-66)""^The foe behind, the deep before (I)""^Joseph Barnby\n(1838-96)" A8 | %1
w: |
 B4 F4 | A8 || A8 | F4 G4 | A4 B4 | c8 || d8 | c4 F4 | B8 || A8 | G4 F4 | E4 E4 | D8 |][M:4/2] d8 | %15
w: |||||||||||||11.~Christ~our~Leader,~Monarch,~Pleader,~Interceder,~praise~we|
 c4 F4 B8 || A8 | G4 F4 E4 E4 | D8 |]!mf!"^1" F4 G4 | A4 B4 c4 d4 |!f! e4 A4 A4 A4 | d6 D2 D4 E4 | %23
w: and a- dore:|Exultation,~veneration,~gratulation,|bring- ing e- ver-|more.|12.~Once de-|spis'd, and once re-|je- cted, was this|Stone: that now e-|
 F4 E4 E4 B4 | B4"^1" A4 ^A4 c4 | c4 B4 d4 c4 | B4 A4 F4 G4 |"^rit." A4 !>!B4 !>!c4 d4 | %28
w: le- cted, To a|Cor- ner- stone per-|fe- cted As a|glo- rious tro- phy|stands e- re- cted.|
!ff! e8 d8 |] %29
w: A- men.|
V:2
 A8 | B4 F4 | A8 || E8 | D4 D4 | D4 F4 | E8 || F8 | F4 F4 | D8 || =C8 | B,4 D4 | D4 C4 | D8 |] %14
[M:4/2] F8 | F4 F4 D8 || =C8 | B,4 D4 D4 C4 | D8 |] D4 C4 | D4 D4 G4 G4 | G4 G4 F4 E4 | %22
 D6 D2 D4 D4 | D4 C4 C4 C4 | D4 D4 E4 E4 | E4 D4 B,4 C4 | D4 E4 D4 D4 | A4 A4 A4 A4 | %28
 (^G4 =G4) F8 |] %29
V:3
"^1. The foe behind, the | deep be-|fore, || Our hosts have | dared and | past the | sea: ||\nAnd Pharaoh's warriors | strew the | shore, || And Israel's | ransomed | tribes are | free.\n\n2. Lift up, lift up your | voices | now! || The whole wide |world re-|joices |now! || \nThe Lord hath triumphed | glorious-|ly: || The Lord shall | reign vic-|torious-|ly!\n\n3. Happy morrow, turning sorrow into | peace and | mirth! || \nBondage ending, Love de-|scending |  o'er the | earth! ||\nSeals assuring, guards securing, watch His | earthly | prison: || \nSeals are shattered, guards are | scattered, | Christ hath | risen! \n\n4. No longer must the | mourners | weep, || Nor call de-|parted | Christians | dead, || \nFor death is hallowed | into | sleep, || And every | grave be-|comes a | bed.\n\n5. Now, once more, Eden's door open stands to | mortal | eyes: || \nFor Christ hath | risen, and | man shall | rise. || \nNow at last, old things past, Hope and joy and | peace be-|gin: || \nFor Christ hath | won, and | man shall | win. \n\n6. It is not exile, | rest on | high: || It is not | sadness, | peace from | strife: || \nTo fall asleep is | not to  | die: || To dwell with | Christ is | better | life.\n\n7. Where our banner leads us, we may | safely | go. || \nWhere our Chief precedes us, | we may |  face the | foe. ||  \nHis right arm is o'er us, He our | guide will | be. || \nChrist hath gone before us: | Christians, | follow | ye!\n\n8. He shall soon deliver from | every | woe; || Alleluia, | if His | paths ye | tread.|| \nPleasures, as a river, shall | round you | flow, || Alleluia, | when ye | see your | Head.\n\n9. With loins upgirt, and | staff in | hand, || And hasty | mein and | sandalled | feet, || \nAround the Paschal | feast we | stand, || And of the | Paschal | Lamb we | eat.\n\n10. So shall He collect us, direct us, protect us, from | Egypt's | strand: || \nSo shall He precede us, and feed us, and | lead us to | Canaan's| land. || \nToils and foes assailing, friends quailing, hearts failing, shall | threat in | vain: || \nIf He be providing, presiding, and | guiding to | Him a-|gain." A,8 | %1
 B,4 F,4 | A,8 || A,8 | A,4 G,4 | F,4 D4 | C8 || A,8 | A,4 A,4 | B,8 || F,8 | G,4"^i" B,4 | %12
 E,4 G,4 | F,8 |][M:4/2] A,8 | A,4 A,4 B,8 || F,8 | G,4"^i" B,4 E,4"^M" G,4 | F,8 |]!mf! A,4 A,4 | %20
 A,4 G,4 G,4 B,4 |!f! A,4 A,4 A,4 A,4 | F,6 F,2 G,4 ^G,4 | A,4 A,4 A,4 A,4 | A,4 D4 C4 ^A,4 | %25
 ^A,4 B,4 B,4 =A,4 | G,4 E,4 A,4 G,4 | F,4 F4 E4 D4 |!ff! (D4 C4) D8 |] %29
V:4
 A,8 | B,4 F,4 | A,8 || C,8 | D,4 B,,4- | F,4 D,4 | A,8 || D,8 | F,4 F,4 | B,,8 || D,8 | G,4 G,,4 | %12
 A,,4 A,,4 | D,8 |][M:4/2] D,8 | F,4 F,4 B,,8 || D,8 | G,4 G,,4 A,,4 A,,4 | D,8 |] D,4 E,4 | %20
 F,4 G,4 E,4 D,4 | C,4 C,4 D,4 C,4 | B,,6 B,,2 B,,4 B,,4 | A,,4 A,,4 G,4 G,4 | F,4 F,4 F,4 F,4 | %25
 G,4 G,4 G,,4 A,,4 | B,,4 C,4 D,4 B,,4 | A,,4 !>!A,4 G,4 !>!F,4 | (E,4 A,4) D,8 |] %29

